status/24/gpm-primary-080-charging.svg

<?xml version="1.0" encoding="UTF-8" standalone="no"?>
<!-- Created with Inkscape (http://www.inkscape.org/) -->

<svg
   xmlns:svg="http://www.w3.org/2000/svg"
   xmlns="http://www.w3.org/2000/svg"
   xmlns:xlink="http://www.w3.org/1999/xlink"
   version="1.0"
   width="24"
   height="24"
   id="svg2">
  <defs
     id="defs4">
    <linearGradient
       id="linearGradient4151-767-958">
      <stop
         id="stop4470"
         style="stop-color:#979797;stop-opacity:1"
         offset="0" />
      <stop
         id="stop4472"
         style="stop-color:#d5d5d5;stop-opacity:1"
         offset="1" />
    </linearGradient>
    <linearGradient
       x1="4"
       y1="13.500015"
       x2="10.142856"
       y2="13.500015"
       id="linearGradient2442"
       xlink:href="#linearGradient4151-767-958"
       gradientUnits="userSpaceOnUse"
       gradientTransform="matrix(0.8666667,0,0,1,1.5996053,-1.0000155)"
       spreadMethod="reflect" />
    <linearGradient
       id="linearGradient3578-995-735-4-566-885-385-488-812-692">
      <stop
         id="stop7577"
         style="stop-color:#025e98;stop-opacity:1"
         offset="0" />
      <stop
         id="stop7579"
         style="stop-color:#3ba2e3;stop-opacity:1"
         offset="1" />
    </linearGradient>
    <linearGradient
       x1="4"
       y1="13.500015"
       x2="10.142856"
       y2="13.500015"
       id="linearGradient2426"
       xlink:href="#linearGradient3578-995-735-4-566-885-385-488-812-692"
       gradientUnits="userSpaceOnUse"
       gradientTransform="matrix(0.8666667,0,0,1,1.599606,-1.0000157)"
       spreadMethod="reflect" />
    <linearGradient
       id="linearGradient3598-871-484-814-161-889-287-317-39-832">
      <stop
         id="stop7589"
         style="stop-color:#58b8f4;stop-opacity:1"
         offset="0" />
      <stop
         id="stop7591"
         style="stop-color:#136ea8;stop-opacity:1"
         offset="1" />
    </linearGradient>
    <linearGradient
       x1="24"
       y1="16.525082"
       x2="24"
       y2="13.284962"
       id="linearGradient2423"
       xlink:href="#linearGradient3598-871-484-814-161-889-287-317-39-832"
       gradientUnits="userSpaceOnUse"
       gradientTransform="matrix(0.5064111,0,0,0.3656364,-0.154261,2.3549735)" />
    <linearGradient
       id="linearGradient3592-990-183-196-279-371-272-744-724-968">
      <stop
         id="stop7583"
         style="stop-color:#6aadd8;stop-opacity:1"
         offset="0" />
      <stop
         id="stop7585"
         style="stop-color:#0b85d3;stop-opacity:1"
         offset="1" />
    </linearGradient>
    <linearGradient
       x1="15.036061"
       y1="11.205624"
       x2="19.776941"
       y2="18.184662"
       id="linearGradient2421"
       xlink:href="#linearGradient3592-990-183-196-279-371-272-744-724-968"
       gradientUnits="userSpaceOnUse"
       gradientTransform="matrix(0.5064111,0,0,0.3656364,-0.154261,2.3549735)" />
    <linearGradient
       id="linearGradient3539-33">
      <stop
         id="stop4440"
         style="stop-color:white;stop-opacity:1"
         offset="0" />
      <stop
         id="stop4442"
         style="stop-color:white;stop-opacity:0"
         offset="1" />
    </linearGradient>
    <linearGradient
       x1="24"
       y1="16.525082"
       x2="24"
       y2="13.284962"
       id="linearGradient2439"
       xlink:href="#linearGradient3539-33"
       gradientUnits="userSpaceOnUse"
       gradientTransform="matrix(0.5064111,0,0,0.3656364,-0.1538667,-1.6450266)" />
    <linearGradient
       x1="15.036061"
       y1="11.205624"
       x2="19.776941"
       y2="18.184662"
       id="linearGradient2437"
       xlink:href="#linearGradient10033-588-987"
       gradientUnits="userSpaceOnUse"
       gradientTransform="matrix(0.5064111,0,0,0.3656364,-0.1538667,-1.6450266)" />
    <linearGradient
       id="linearGradient4173-908-339">
      <stop
         id="stop4476"
         style="stop-color:#b2b2b2;stop-opacity:1"
         offset="0" />
      <stop
         id="stop4478"
         style="stop-color:#e6e6e6;stop-opacity:1"
         offset="1" />
    </linearGradient>
    <linearGradient
       x1="21.714285"
       y1="10.285714"
       x2="27.038286"
       y2="10.285714"
       id="linearGradient2434"
       xlink:href="#linearGradient4173-908-339"
       gradientUnits="userSpaceOnUse"
       gradientTransform="matrix(0.5513378,0,0,0.6057331,-1.1102658,-3.9460965)" />
    <linearGradient
       id="linearGradient3564-531">
      <stop
         id="stop4452"
         style="stop-color:white;stop-opacity:0.37288135"
         offset="0" />
      <stop
         id="stop4454"
         style="stop-color:#a9a9a9;stop-opacity:0"
         offset="1" />
    </linearGradient>
    <linearGradient
       x1="24"
       y1="16.525082"
       x2="24"
       y2="13.284962"
       id="linearGradient2431"
       xlink:href="#linearGradient3564-531"
       gradientUnits="userSpaceOnUse"
       gradientTransform="matrix(0.1938623,0,0,0.11461,7.3473048,-0.4748872)" />
    <linearGradient
       id="linearGradient10033-588-987">
      <stop
         id="stop4446"
         style="stop-color:#e5e5e5;stop-opacity:1"
         offset="0" />
      <stop
         id="stop4448"
         style="stop-color:#b2b2b2;stop-opacity:1"
         offset="1" />
    </linearGradient>
    <linearGradient
       x1="15.036061"
       y1="11.205624"
       x2="19.776941"
       y2="18.184662"
       id="linearGradient2429"
       xlink:href="#linearGradient10033-588-987"
       gradientUnits="userSpaceOnUse"
       gradientTransform="matrix(0.1938623,0,0,0.11461,7.3473048,-0.4748872)" />
  </defs>
  <g
     id="layer1">
    <path
       d="m 11.999606,1.5 c -3.5959267,0 -6.5000004,0.8893552 -6.5000004,2 0,6.666667 0,11.145832 0,17.8125 0.00145,0.0087 0.027551,0.02149 0.03125,0.03125 -0.011609,0.04904 -0.03125,0.106297 -0.03125,0.15625 0,1.110072 2.9059279,2 6.5000004,2 3.594072,0 6.5,-0.889929 6.5,-2 0,-0.01943 0.0018,-0.04321 0,-0.0625 0,-6.666667 0,-11.270833 0,-17.9375 0,-1.1106447 -2.904074,-2 -6.5,-2 z"
       id="rect2432"
       style="opacity:0.4;fill:url(#linearGradient2442);fill-opacity:1;fill-rule:nonzero;stroke:#575757;stroke-width:0.99999994;stroke-linecap:round;stroke-linejoin:round;stroke-miterlimit:10;stroke-opacity:1;stroke-dasharray:none;stroke-dashoffset:0;marker:none;visibility:visible;display:inline;overflow:visible;enable-background:accumulate" />
    <path
       d="m 5.499606,7.5 c 0,6.666667 0,7.145832 0,13.8125 0.00145,0.0087 0.027551,0.02149 0.03125,0.03125 -0.011609,0.04904 -0.03125,0.106297 -0.03125,0.15625 0,1.110072 2.905928,2 6.5,2 3.594072,0 6.5,-0.889929 6.5,-2 0,-0.01943 0.0018,-0.04321 0,-0.0625 0,-6.666667 0,-7.270833 0,-13.9375 -4.333333,0 -8.6666667,0 -13,0 z"
       id="path2481"
       style="fill:url(#linearGradient2426);fill-opacity:1;fill-rule:nonzero;stroke:#176597;stroke-width:0.99999994;stroke-linecap:round;stroke-linejoin:round;stroke-miterlimit:10;stroke-opacity:1;stroke-dasharray:none;stroke-dashoffset:0;marker:none;visibility:visible;display:inline;overflow:visible;enable-background:accumulate" />
    <path
       d="m 18.510605,7.5 c 0,1.110645 -2.915074,2.011 -6.511,2.011 -3.595926,0 -6.510999,-0.900355 -6.510999,-2.011 0,-1.1106449 2.915073,-2.0110005 6.510999,-2.0110005 3.595926,0 6.511,0.9003556 6.511,2.0110005 l 0,0 z"
       id="path2483"
       style="fill:url(#linearGradient2421);fill-opacity:1;fill-rule:nonzero;stroke:url(#linearGradient2423);stroke-width:0.97799999;stroke-linecap:butt;stroke-linejoin:round;stroke-miterlimit:10;stroke-opacity:1;stroke-dasharray:none;stroke-dashoffset:0;marker:none;visibility:visible;display:block;overflow:visible" />
    <path
       d="m 18.510999,3.4999997 c 0,1.1106447 -2.915073,2.0110002 -6.510999,2.0110002 -3.5959263,0 -6.5109997,-0.9003555 -6.5109997,-2.0110002 0,-1.1106447 2.9150734,-2.0110003 6.5109997,-2.0110003 3.595926,0 6.510999,0.9003556 6.510999,2.0110003 l 0,0 z"
       id="path3243"
       style="opacity:0.4;fill:url(#linearGradient2437);fill-opacity:1;fill-rule:nonzero;stroke:url(#linearGradient2439);stroke-width:0.97799999;stroke-linecap:butt;stroke-linejoin:round;stroke-miterlimit:10;stroke-opacity:1;stroke-dasharray:none;stroke-dashoffset:0;marker:none;visibility:visible;display:block;overflow:visible" />
    <path
       d="m 12.060888,0.6710315 c -1.3001,-0.0182745 -2.5534034,0.2607403 -2.5534034,0.6457571 0,0.038185 0,1.2927322 0,1.3325007 0,0.5321464 1.4491864,0.8432262 2.5534034,0.8432262 1.104215,0 2.431627,-0.3110798 2.431627,-0.8432262 0,-0.031498 0,-1.0506783 0,-1.3325007 0,-0.2818226 -1.11929,-0.6273107 -2.431627,-0.6457571 z"
       id="path3251"
       style="opacity:0.3;fill:url(#linearGradient2434);fill-opacity:1;fill-rule:nonzero;stroke:#919191;stroke-width:1.01496899;stroke-linecap:butt;stroke-linejoin:round;stroke-miterlimit:10;stroke-opacity:1;stroke-dasharray:none;stroke-dashoffset:0;marker:none;visibility:visible;display:block;overflow:visible" />
    <path
       d="m 14.492515,1.1378392 c 0,0.3481354 -1.115937,0.630355 -2.492515,0.630355 -1.376578,0 -2.4925151,-0.2822196 -2.4925151,-0.630355 0,-0.34813548 1.1159371,-0.63035505 2.4925151,-0.63035505 1.376578,0 2.492515,0.28221957 2.492515,0.63035505 l 0,0 z"
       id="path3253"
       style="opacity:0.4;fill:url(#linearGradient2429);fill-opacity:1;fill-rule:nonzero;stroke:url(#linearGradient2431);stroke-width:1.01496887;stroke-linecap:butt;stroke-linejoin:round;stroke-miterlimit:10;stroke-opacity:1;stroke-dasharray:none;stroke-dashoffset:0;marker:none;visibility:visible;display:block;overflow:visible" />
    <g
       transform="translate(15.399536,0.1029982)"
       id="g2501">
      <path
         d="M 10,6 C 9.3341626,6 8.7657796,6.1717204 8.40625,6.53125 8.2264852,6.7110148 8.1200789,6.9210132 8.0625,7.09375 8.0049211,7.2664868 8,7.5 8,7.5 l 0,2.875 c -0.5510374,0.31611 -1,0.783823 -1,1.46875 l 0,5.3125 C 7,18.209 7.9282149,19 8.9375,19 L 10,19 l 0,4 c -0.0013,0.265614 0.103633,0.520727 0.291453,0.708547 C 10.479273,23.896367 10.734386,24.001305 11,24 l 2,0 c 0.265614,0.0013 0.520727,-0.103633 0.708547,-0.291453 C 13.896367,23.520727 14.001305,23.265614 14,23 l 0,-4 1.0625,0 C 16.071785,19 17,18.208999 17,17.15625 l 0,-5.3125 C 17,11.158822 16.551037,10.69111 16,10.375 L 16,7.5 C 16,7.5 15.9951,7.2664868 15.9375,7.09375 15.879921,6.9210132 15.773515,6.7110148 15.59375,6.53125 15.23422,6.1717204 14.665837,6 14,6 13.334163,6 12.76578,6.1717204 12.40625,6.53125 12.226485,6.7110148 12.120079,6.9210132 12.0625,7.09375 12.004921,7.2664868 12,7.5 12,7.5 12,7.5 11.995079,7.2664868 11.9375,7.09375 11.879921,6.9210132 11.773515,6.7110148 11.59375,6.53125 11.23422,6.1717204 10.665837,6 10,6 z"
         transform="translate(-15.399536,-0.1030102)"
         id="path3518"
         style="opacity:0.2;fill:white;fill-opacity:1;fill-rule:nonzero;stroke:none;stroke-width:0.97799999;marker:none;visibility:visible;display:block;overflow:visible;enable-background:accumulate" />
      <path
         d="m -5.399536,6.8969898 c -1,0 -1,0.5 -1,0.5 l 0,3.5000002 -0.0625,0 c -0.5263477,0 -0.9375,0.383196 -0.9375,0.84375 l 0,5.3125 c 0,0.460554 0.4111527,0.84375 0.9375,0.84375 l 2.0625,0 0,5 2,0 0,-5 2.0625,0 c 0.526348,0 0.9375,-0.383196 0.9375,-0.84375 l 0,-5.3125 c 0,-0.460554 -0.411153,-0.84375 -0.9375,-0.84375 l -0.0625,0 0,-3.5000002 c 0,0 0,-0.5 -1,-0.5 -1,0 -1,0.5 -1,0.5 l 0,3.5000002 -2,0 0,-3.5000002 c 0,0 0,-0.5 -1,-0.5 z"
         id="rect2736"
         style="fill:black;fill-opacity:1;fill-rule:nonzero;stroke:none;stroke-width:0.97799999;marker:none;visibility:visible;display:block;overflow:visible;enable-background:accumulate" />
    </g>
  </g>
</svg>

<?xml version="1.0" encoding="UTF-8" standalone="no"?>
<!-- Created with Inkscape (http://www.inkscape.org/) -->
<svg
   xmlns:svg="http://www.w3.org/2000/svg"
   xmlns="http://www.w3.org/2000/svg"
   xmlns:xlink="http://www.w3.org/1999/xlink"
   version="1.0"
   width="24"
   height="24"
   id="svg2">
  <defs
     id="defs4">
    <linearGradient
       id="linearGradient4151-767-958">
      <stop
         id="stop4470"
         style="stop-color:#979797;stop-opacity:1"
         offset="0" />
      <stop
         id="stop4472"
         style="stop-color:#d5d5d5;stop-opacity:1"
         offset="1" />
    </linearGradient>
    <linearGradient
       x1="4"
       y1="13.500015"
       x2="10.142856"
       y2="13.500015"
       id="linearGradient2442"
       xlink:href="#linearGradient4151-767-958"
       gradientUnits="userSpaceOnUse"
       gradientTransform="matrix(0.8666667,0,0,1,1.5996053,-1.0000155)"
       spreadMethod="reflect" />
    <linearGradient
       id="linearGradient3578-995-735-4-566-885-385-488-812-692">
      <stop
         id="stop7577"
         style="stop-color:#025e98;stop-opacity:1"
         offset="0" />
      <stop
         id="stop7579"
         style="stop-color:#3ba2e3;stop-opacity:1"
         offset="1" />
    </linearGradient>
    <linearGradient
       x1="4"
       y1="13.500015"
       x2="10.142856"
       y2="13.500015"
       id="linearGradient2426"
       xlink:href="#linearGradient3578-995-735-4-566-885-385-488-812-692"
       gradientUnits="userSpaceOnUse"
       gradientTransform="matrix(0.8666667,0,0,1,1.599606,-1.0000157)"
       spreadMethod="reflect" />
    <linearGradient
       id="linearGradient3598-871-484-814-161-889-287-317-39-832">
      <stop
         id="stop7589"
         style="stop-color:#58b8f4;stop-opacity:1"
         offset="0" />
      <stop
         id="stop7591"
         style="stop-color:#136ea8;stop-opacity:1"
         offset="1" />
    </linearGradient>
    <linearGradient
       x1="24"
       y1="16.525082"
       x2="24"
       y2="13.284962"
       id="linearGradient2423"
       xlink:href="#linearGradient3598-871-484-814-161-889-287-317-39-832"
       gradientUnits="userSpaceOnUse"
       gradientTransform="matrix(0.5064111,0,0,0.3656364,-0.154261,2.3549735)" />
    <linearGradient
       id="linearGradient3592-990-183-196-279-371-272-744-724-968">
      <stop
         id="stop7583"
         style="stop-color:#6aadd8;stop-opacity:1"
         offset="0" />
      <stop
         id="stop7585"
         style="stop-color:#0b85d3;stop-opacity:1"
         offset="1" />
    </linearGradient>
    <linearGradient
       x1="15.036061"
       y1="11.205624"
       x2="19.776941"
       y2="18.184662"
       id="linearGradient2421"
       xlink:href="#linearGradient3592-990-183-196-279-371-272-744-724-968"
       gradientUnits="userSpaceOnUse"
       gradientTransform="matrix(0.5064111,0,0,0.3656364,-0.154261,2.3549735)" />
    <linearGradient
       id="linearGradient3539-33">
      <stop
         id="stop4440"
         style="stop-color:#ffffff;stop-opacity:1"
         offset="0" />
      <stop
         id="stop4442"
         style="stop-color:#ffffff;stop-opacity:0"
         offset="1" />
    </linearGradient>
    <linearGradient
       x1="24"
       y1="16.525082"
       x2="24"
       y2="13.284962"
       id="linearGradient2439"
       xlink:href="#linearGradient3539-33"
       gradientUnits="userSpaceOnUse"
       gradientTransform="matrix(0.5064111,0,0,0.3656364,-0.1538667,-1.6450266)" />
    <linearGradient
       x1="15.036061"
       y1="11.205624"
       x2="19.776941"
       y2="18.184662"
       id="linearGradient2437"
       xlink:href="#linearGradient10033-588-987"
       gradientUnits="userSpaceOnUse"
       gradientTransform="matrix(0.5064111,0,0,0.3656364,-0.1538667,-1.6450266)" />
    <linearGradient
       id="linearGradient4173-908-339">
      <stop
         id="stop4476"
         style="stop-color:#b2b2b2;stop-opacity:1"
         offset="0" />
      <stop
         id="stop4478"
         style="stop-color:#e6e6e6;stop-opacity:1"
         offset="1" />
    </linearGradient>
    <linearGradient
       x1="21.714285"
       y1="10.285714"
       x2="27.038286"
       y2="10.285714"
       id="linearGradient2434"
       xlink:href="#linearGradient4173-908-339"
       gradientUnits="userSpaceOnUse"
       gradientTransform="matrix(0.5513378,0,0,0.6057331,-1.1102658,-3.9460965)" />
    <linearGradient
       id="linearGradient3564-531">
      <stop
         id="stop4452"
         style="stop-color:#ffffff;stop-opacity:0.37288135"
         offset="0" />
      <stop
         id="stop4454"
         style="stop-color:#a9a9a9;stop-opacity:0"
         offset="1" />
    </linearGradient>
    <linearGradient
       x1="24"
       y1="16.525082"
       x2="24"
       y2="13.284962"
       id="linearGradient2431"
       xlink:href="#linearGradient3564-531"
       gradientUnits="userSpaceOnUse"
       gradientTransform="matrix(0.1938623,0,0,0.11461,7.3473048,-0.4748872)" />
    <linearGradient
       id="linearGradient10033-588-987">
      <stop
         id="stop4446"
         style="stop-color:#e5e5e5;stop-opacity:1"
         offset="0" />
      <stop
         id="stop4448"
         style="stop-color:#b2b2b2;stop-opacity:1"
         offset="1" />
    </linearGradient>
    <linearGradient
       x1="15.036061"
       y1="11.205624"
       x2="19.776941"
       y2="18.184662"
       id="linearGradient2429"
       xlink:href="#linearGradient10033-588-987"
       gradientUnits="userSpaceOnUse"
       gradientTransform="matrix(0.1938623,0,0,0.11461,7.3473048,-0.4748872)" />
  </defs>
  <g
     id="layer1">
    <path
       d="M 11.999606,1.5 C 8.4036793,1.5 5.4996056,2.3893552 5.4996056,3.5 C 5.4996056,10.166667 5.4996056,14.645832 5.4996056,21.3125 C 5.5010535,21.321187 5.527157,21.333988 5.5308556,21.34375 C 5.5192461,21.392793 5.4996056,21.450047 5.4996056,21.5 C 5.4996056,22.610072 8.4055335,23.5 11.999606,23.5 C 15.593678,23.5 18.499606,22.610071 18.499606,21.5 C 18.499606,21.480574 18.501381,21.456794 18.499606,21.4375 C 18.499606,14.770833 18.499606,10.166667 18.499606,3.5 C 18.499606,2.3893553 15.595532,1.5 11.999606,1.5 z"
       id="rect2432"
       style="opacity:0.4;fill:url(#linearGradient2442);fill-opacity:1;fill-rule:nonzero;stroke:#575757;stroke-width:0.99999994;stroke-linecap:round;stroke-linejoin:round;marker:none;marker-start:none;marker-mid:none;marker-end:none;stroke-miterlimit:10;stroke-dasharray:none;stroke-dashoffset:0;stroke-opacity:1;visibility:visible;display:inline;overflow:visible;enable-background:accumulate" />
    <path
       d="M 5.499606,7.5 C 5.499606,14.166667 5.499606,14.645832 5.499606,21.3125 C 5.501054,21.321187 5.527157,21.333988 5.530856,21.34375 C 5.519247,21.392793 5.499606,21.450047 5.499606,21.5 C 5.499606,22.610072 8.405534,23.5 11.999606,23.5 C 15.593678,23.5 18.499606,22.610071 18.499606,21.5 C 18.499606,21.480574 18.501381,21.456794 18.499606,21.4375 C 18.499606,14.770833 18.499606,14.166667 18.499606,7.5 C 14.166273,7.5 9.8329393,7.5 5.499606,7.5 z"
       id="path2481"
       style="fill:url(#linearGradient2426);fill-opacity:1;fill-rule:nonzero;stroke:#176597;stroke-width:0.99999994;stroke-linecap:round;stroke-linejoin:round;marker:none;marker-start:none;marker-mid:none;marker-end:none;stroke-miterlimit:10;stroke-dasharray:none;stroke-dashoffset:0;stroke-opacity:1;visibility:visible;display:inline;overflow:visible;enable-background:accumulate" />
    <path
       d="M 18.510605,7.5 C 18.510605,8.610645 15.595531,9.511 11.999605,9.511 C 8.403679,9.511 5.488606,8.610645 5.488606,7.5 C 5.488606,6.3893551 8.403679,5.4889995 11.999605,5.4889995 C 15.595531,5.4889995 18.510605,6.3893551 18.510605,7.5 L 18.510605,7.5 z"
       id="path2483"
       style="fill:url(#linearGradient2421);fill-opacity:1;fill-rule:nonzero;stroke:url(#linearGradient2423);stroke-width:0.97799999;stroke-linecap:butt;stroke-linejoin:round;marker:none;marker-start:none;marker-mid:none;marker-end:none;stroke-miterlimit:10;stroke-dasharray:none;stroke-dashoffset:0;stroke-opacity:1;visibility:visible;display:block;overflow:visible" />
    <path
       d="M 18.510999,3.4999997 C 18.510999,4.6106444 15.595926,5.5109999 12,5.5109999 C 8.4040737,5.5109999 5.4890003,4.6106444 5.4890003,3.4999997 C 5.4890003,2.389355 8.4040737,1.4889994 12,1.4889994 C 15.595926,1.4889994 18.510999,2.389355 18.510999,3.4999997 L 18.510999,3.4999997 z"
       id="path3243"
       style="opacity:0.4;fill:url(#linearGradient2437);fill-opacity:1;fill-rule:nonzero;stroke:url(#linearGradient2439);stroke-width:0.97799999;stroke-linecap:butt;stroke-linejoin:round;marker:none;marker-start:none;marker-mid:none;marker-end:none;stroke-miterlimit:10;stroke-dasharray:none;stroke-dashoffset:0;stroke-opacity:1;visibility:visible;display:block;overflow:visible" />
    <path
       d="M 12.060888,0.6710315 C 10.760788,0.652757 9.5074846,0.9317718 9.5074846,1.3167886 C 9.5074846,1.354974 9.5074846,2.6095208 9.5074846,2.6492893 C 9.5074846,3.1814357 10.956671,3.4925155 12.060888,3.4925155 C 13.165103,3.4925155 14.492515,3.1814357 14.492515,2.6492893 C 14.492515,2.6177912 14.492515,1.598611 14.492515,1.3167886 C 14.492515,1.034966 13.373225,0.6894779 12.060888,0.6710315 z"
       id="path3251"
       style="opacity:0.3;fill:url(#linearGradient2434);fill-opacity:1;fill-rule:nonzero;stroke:#919191;stroke-width:1.01496899;stroke-linecap:butt;stroke-linejoin:round;marker:none;marker-start:none;marker-mid:none;marker-end:none;stroke-miterlimit:10;stroke-dasharray:none;stroke-dashoffset:0;stroke-opacity:1;visibility:visible;display:block;overflow:visible" />
    <path
       d="M 14.492515,1.1378392 C 14.492515,1.4859746 13.376578,1.7681942 12,1.7681942 C 10.623422,1.7681942 9.5074849,1.4859746 9.5074849,1.1378392 C 9.5074849,0.78970372 10.623422,0.50748415 12,0.50748415 C 13.376578,0.50748415 14.492515,0.78970372 14.492515,1.1378392 L 14.492515,1.1378392 z"
       id="path3253"
       style="opacity:0.4;fill:url(#linearGradient2429);fill-opacity:1;fill-rule:nonzero;stroke:url(#linearGradient2431);stroke-width:1.01496887;stroke-linecap:butt;stroke-linejoin:round;marker:none;marker-start:none;marker-mid:none;marker-end:none;stroke-miterlimit:10;stroke-dasharray:none;stroke-dashoffset:0;stroke-opacity:1;visibility:visible;display:block;overflow:visible" />
    <g
       transform="translate(15.399536,0.1029982)"
       id="g2501">
      <path
         d="M 10,6 C 9.3341626,6 8.7657796,6.1717204 8.40625,6.53125 C 8.2264852,6.7110148 8.1200789,6.9210132 8.0625,7.09375 C 8.0049211,7.2664868 8,7.5 8,7.5 L 8,10.375 C 7.4489626,10.69111 7,11.158823 7,11.84375 L 7,17.15625 C 7,18.209 7.9282149,19 8.9375,19 L 10,19 L 10,23 C 9.9986953,23.265614 10.103633,23.520727 10.291453,23.708547 C 10.479273,23.896367 10.734386,24.001305 11,24 L 13,24 C 13.265614,24.001305 13.520727,23.896367 13.708547,23.708547 C 13.896367,23.520727 14.001305,23.265614 14,23 L 14,19 L 15.0625,19 C 16.071785,19 17,18.208999 17,17.15625 L 17,11.84375 C 17,11.158822 16.551037,10.69111 16,10.375 L 16,7.5 C 16,7.5 15.995079,7.2664868 15.9375,7.09375 C 15.879921,6.9210132 15.773515,6.7110148 15.59375,6.53125 C 15.23422,6.1717204 14.665837,6 14,6 C 13.334163,6 12.76578,6.1717204 12.40625,6.53125 C 12.226485,6.7110148 12.120079,6.9210132 12.0625,7.09375 C 12.004921,7.2664868 12,7.5 12,7.5 C 12,7.5 11.995079,7.2664868 11.9375,7.09375 C 11.879921,6.9210132 11.773515,6.7110148 11.59375,6.53125 C 11.23422,6.1717204 10.665837,6 10,6 z"
         transform="translate(-15.399536,-0.1030102)"
         id="path3518"
         style="opacity:0.2;fill:#ffffff;fill-opacity:1;fill-rule:nonzero;stroke:none;stroke-width:0.97799999;stroke-linecap:butt;stroke-linejoin:round;marker:none;marker-start:none;marker-mid:none;marker-end:none;stroke-miterlimit:10;stroke-dasharray:none;stroke-dashoffset:0;stroke-opacity:1;visibility:visible;display:block;overflow:visible;enable-background:accumulate" />
      <path
         d="M -5.399536,6.8969898 C -6.399536,6.8969898 -6.399536,7.3969898 -6.399536,7.3969898 L -6.399536,10.89699 L -6.462036,10.89699 C -6.9883837,10.89699 -7.399536,11.280186 -7.399536,11.74074 L -7.399536,17.05324 C -7.399536,17.513794 -6.9883833,17.89699 -6.462036,17.89699 L -4.399536,17.89699 L -4.399536,22.89699 L -2.399536,22.89699 L -2.399536,17.89699 L -0.337036,17.89699 C 0.189312,17.89699 0.600464,17.513794 0.600464,17.05324 L 0.600464,11.74074 C 0.600464,11.280186 0.189311,10.89699 -0.337036,10.89699 L -0.399536,10.89699 L -0.399536,7.3969898 C -0.399536,7.3969898 -0.399536,6.8969898 -1.399536,6.8969898 C -2.399536,6.8969898 -2.399536,7.3969898 -2.399536,7.3969898 L -2.399536,10.89699 L -4.399536,10.89699 L -4.399536,7.3969898 C -4.399536,7.3969898 -4.399536,6.8969898 -5.399536,6.8969898 z"
         id="rect2736"
         style="fill:#000000;fill-opacity:1;fill-rule:nonzero;stroke:none;stroke-width:0.97799999;stroke-linecap:butt;stroke-linejoin:round;marker:none;marker-start:none;marker-mid:none;marker-end:none;stroke-miterlimit:10;stroke-dasharray:none;stroke-dashoffset:0;stroke-opacity:1;visibility:visible;display:block;overflow:visible;enable-background:accumulate" />
    </g>
  </g>
</svg>
